public/avatar/item2/70.svg

<svg xmlns:xlink="http://www.w3.org/1999/xlink" height="99.2" width="82.2" xmlns="http://www.w3.org/2000/svg"><use height="10.8" transform="translate(42.75 70.05)" width="19.1" xlink:href="#a"/><defs><g id="a" fill-rule="evenodd"><path d="M14.2 26q.2-.5.7-.85.95-.7 2.1-.95l.85.15-.35-.05q-.3 0-.4.25.8 1.55 2.35 2.65l.5-.05q.6-1.5-.55-2.25 1.9 1 1.7 3.4l-.6.45-.45-.7q-.55-.55-1.35-.55t-1.35.55q-.55.55-.55 1.35t.55 1.35l.1.1q-2.5-.4-3.15-2.6l.2-.1q2.35-1.35-.3-2.15m3.65-1.65.05-.15q.65.2 1.05.5l-1.1-.35m.65 4q-.4.25-.6.9l-.25.6q-.75-.35-.05-1.4.3-.5.9-.55l-.4.35.4.1m1-.4.55.55v.05l-.75-.3.25-.15-.05-.15m-.05.75-.05.05q-.3.9 1.05 1.05l.5-.1q3.55-2.6 7.15-.35l.35.35q.4 1.2-1.1 1.95l-1.85.65q-.8.15.15.2 2.65.2 4.15-1.9l.05-.75-.05-.15.3.45q.25.3.05.65-1.05 1.85-3.2 2.35-1.8.4-2.6-.75-.1-.15.1-.25l1.9-.65q1.5-.5.45-1.6-.6-.65-1.5-.7-2.05-.2-3.75 1l-.75.5-.8.15v.1l-.6-.3q-1.6-1-.2-2.05l.25.1m4.95-1q-.65.15-1.2.45l-1.6.55q1.3-.8 2.8-1m-6.55 2.65.75.45.05.05q-.65.35-.85-.45l.05-.05m-2.25 1q2.85 1.1.45 1.2-1.3.05-.95-1.1l.35-.1h.15" fill="#fbb941" transform="translate(-11.75 -23.3)"/><path d="M14.2 26q2.65.8.3 2.15l-.2.1q-.35.05-.6-.4-.65-1.25.5-1.85m5.2-1.1q1.15.75.55 2.25l-.5.05q-1.55-1.1-2.35-2.65.1-.25.4-.25l.35.05 1.1.35.45.2m-.9 3 .55-.15q.3-.05.45.2l.05.15-.25.15-.8.1-.4-.1.4-.35m11.3 1.8.05.15-.05.75q-1.5 2.1-4.15 1.9-.95-.05-.15-.2l1.85-.65q1.5-.75 1.1-1.95l-.35-.35q-3.6-2.25-7.15.35l-.5.1q-1.35-.15-1.05-1.05l.05-.05.2-.05 1.95.05 1.6-.55q.55-.3 1.2-.45l.9-.15h.65q2.6.1 3.85 2.15" fill="#fff" transform="translate(-11.75 -23.3)"/><path d="M17.85 24.35 17 24.2q-1.15.25-2.1.95-.5.35-.7.85-1.15.6-.5 1.85.25.45.6.4.65 2.2 3.15 2.6.5.45 1.25.45h.15l.05.05.1-.15h.05l.85.4h.05l.1.45-1.1 1.15-.3.05v-.05l-1.5.25q-2-.05-3.4-1.45-1.4-1.35-1.4-3.35t1.4-3.4q1.4-1.4 3.4-1.4t3.4 1.4q1.1 1.15 1.35 2.65l-.45.2-.35.2q.2-2.4-1.7-3.4l-.45-.2q-.4-.3-1.05-.5l-.05.15m-2.25 7h-.15l-.35.1q-.35 1.15.95 1.1 2.4-.1-.45-1.2" fill="#c47500" transform="translate(-11.75 -23.3)"/><path d="m17.45 30.85-.1-.1q-.55-.55-.55-1.35t.55-1.35q.55-.55 1.35-.55t1.35.55l.45.7.6-.45.35-.2.45-.2q-.25-1.5-1.35-2.65-1.4-1.4-3.4-1.4t-3.4 1.4q-1.4 1.4-1.4 3.4t1.4 3.35q1.4 1.4 3.4 1.45l1.5-.25v.05l.3-.05 1.1-1.15-.1-.45h-.05l-.85-.4H19l-.1.15-.05-.05h-.15q-.75 0-1.25-.45m1.05-2.95q-.6.05-.9.55-.7 1.05.05 1.4l.25-.6q.2-.65.6-.9l.8-.1.75.3v-.05l-.55-.55q-.15-.25-.45-.2l-.55.15m11.3 1.8q-1.25-2.05-3.85-2.15h-.65l-.9.15q-1.5.2-2.8 1l-1.95-.05-.2.05-.25-.1q-1.4 1.05.2 2.05l.6.3v-.1l.8-.15.75-.5q1.7-1.2 3.75-1 .9.05 1.5.7 1.05 1.1-.45 1.6l-1.9.65q-.2.1-.1.25.8 1.15 2.6.75 2.15-.5 3.2-2.35.2-.35-.05-.65l-.3-.45m-11.95.65-.05.05q.2.8.85.45l-.05-.05-.75-.45m-4.55-5.5q1.6-1.55 3.85-1.55t3.8 1.55q1.25 1.25 1.55 2.85l2.65-.35q2.1 0 3.65.75l.2.1q2.95 1.3 1.25 3.8l-.4.5-.25.2-.95.45h-.05l-.2.1-.7.25-1.45.25-.8-.2q-.9-.25-1.35-1.05-.6-1 .95-1.25l.65-.35q.9-1.1-1-1l-1.3.2q-.55.1-.95.45l-1.4 1.25q-.55.5-.8 1.15l-1.05.55-.75.45-1.3.15q-2.25 0-3.85-1.6-1.55-1.55-1.55-3.8t1.55-3.85" fill="#371200" transform="translate(-11.75 -23.3)"/></g></defs></svg>

<?xml version="1.0" encoding="UTF-8" standalone="no"?>
<svg xmlns:xlink="http://www.w3.org/1999/xlink" height="99.2px" width="82.2px" xmlns="http://www.w3.org/2000/svg">
  <g transform="matrix(1.0, 0.0, 0.0, 1.0, 31.0, 46.75)">
    <use height="10.8" transform="matrix(1.0, 0.0, 0.0, 1.0, 11.75, 23.3)" width="19.1" xlink:href="#shape0"/>
  </g>
  <defs>
    <g id="shape0" transform="matrix(1.0, 0.0, 0.0, 1.0, -11.75, -23.3)">
      <path d="M14.2 26.0 Q14.4 25.5 14.9 25.15 15.85 24.45 17.0 24.2 L17.85 24.35 17.5 24.3 Q17.2 24.3 17.1 24.55 17.9 26.1 19.45 27.2 L19.95 27.15 Q20.55 25.65 19.4 24.9 21.3 25.9 21.1 28.3 L20.5 28.75 20.05 28.05 Q19.5 27.5 18.7 27.5 17.9 27.5 17.35 28.05 16.8 28.6 16.8 29.4 16.8 30.2 17.35 30.75 L17.45 30.85 Q14.95 30.45 14.3 28.25 L14.5 28.15 Q16.85 26.8 14.2 26.0 M17.85 24.35 L17.9 24.2 Q18.55 24.4 18.95 24.7 L17.85 24.35 M18.5 28.35 Q18.1 28.6 17.9 29.25 L17.65 29.85 Q16.9 29.5 17.6 28.45 17.9 27.95 18.5 27.9 L18.1 28.25 18.5 28.35 M19.5 27.95 L20.05 28.5 20.05 28.55 19.3 28.25 19.55 28.1 19.5 27.95 M19.45 28.7 L19.4 28.75 Q19.1 29.65 20.45 29.8 L20.95 29.7 Q24.5 27.1 28.1 29.35 L28.45 29.7 Q28.85 30.9 27.35 31.65 L25.5 32.3 Q24.7 32.45 25.65 32.5 28.3 32.7 29.8 30.6 L29.85 29.85 29.8 29.7 30.1 30.15 Q30.35 30.45 30.15 30.8 29.1 32.65 26.95 33.15 25.15 33.55 24.35 32.4 24.25 32.25 24.45 32.15 L26.35 31.5 Q27.85 31.0 26.8 29.9 26.2 29.25 25.3 29.2 23.25 29.0 21.55 30.2 L20.8 30.7 20.0 30.85 20.0 30.95 19.4 30.65 Q17.8 29.65 19.2 28.6 L19.45 28.7 M24.4 27.7 Q23.75 27.85 23.2 28.15 L21.6 28.7 Q22.9 27.9 24.4 27.7 M17.85 30.35 L18.6 30.8 18.65 30.85 Q18.0 31.2 17.8 30.4 L17.85 30.35 M15.6 31.35 Q18.45 32.45 16.05 32.55 14.75 32.6 15.1 31.45 L15.45 31.35 15.6 31.35" fill="#fbb941" fill-rule="evenodd" stroke="none"/>
      <path d="M14.2 26.0 Q16.85 26.8 14.5 28.15 L14.3 28.25 Q13.95 28.3 13.7 27.85 13.05 26.6 14.2 26.0 M19.4 24.9 Q20.55 25.65 19.95 27.15 L19.45 27.2 Q17.9 26.1 17.1 24.55 17.2 24.3 17.5 24.3 L17.85 24.35 18.95 24.7 19.4 24.9 M18.5 27.9 L19.05 27.75 Q19.35 27.7 19.5 27.95 L19.55 28.1 19.3 28.25 18.5 28.35 18.1 28.25 18.5 27.9 M29.8 29.7 L29.85 29.85 29.8 30.6 Q28.3 32.7 25.65 32.5 24.7 32.45 25.5 32.3 L27.35 31.65 Q28.85 30.9 28.45 29.7 L28.1 29.35 Q24.5 27.1 20.95 29.7 L20.45 29.8 Q19.1 29.65 19.4 28.75 L19.45 28.7 19.65 28.65 21.6 28.7 23.2 28.15 Q23.75 27.85 24.4 27.7 L25.3 27.55 25.95 27.55 Q28.55 27.65 29.8 29.7" fill="#ffffff" fill-rule="evenodd" stroke="none"/>
      <path d="M17.85 24.35 L17.0 24.2 Q15.85 24.45 14.9 25.15 14.4 25.5 14.2 26.0 13.05 26.6 13.7 27.85 13.95 28.3 14.3 28.25 14.95 30.45 17.45 30.85 17.95 31.3 18.7 31.3 L18.85 31.3 18.9 31.35 19.0 31.2 19.05 31.2 19.9 31.6 19.95 31.6 20.05 32.05 18.95 33.2 18.65 33.25 18.65 33.2 17.15 33.45 Q15.15 33.4 13.75 32.0 12.35 30.65 12.35 28.65 12.35 26.65 13.75 25.25 15.15 23.85 17.15 23.85 19.15 23.85 20.55 25.25 21.65 26.4 21.9 27.9 L21.45 28.1 21.1 28.3 Q21.3 25.9 19.4 24.9 L18.95 24.7 Q18.55 24.4 17.9 24.2 L17.85 24.35 M15.6 31.35 L15.45 31.35 15.1 31.45 Q14.75 32.6 16.05 32.55 18.45 32.45 15.6 31.35" fill="#c47500" fill-rule="evenodd" stroke="none"/>
      <path d="M17.45 30.85 L17.35 30.75 Q16.8 30.2 16.8 29.4 16.8 28.6 17.35 28.05 17.9 27.5 18.7 27.5 19.5 27.5 20.05 28.05 L20.5 28.75 21.1 28.3 21.45 28.1 21.9 27.9 Q21.65 26.4 20.55 25.25 19.15 23.85 17.15 23.85 15.15 23.85 13.75 25.25 12.35 26.65 12.35 28.65 12.35 30.65 13.75 32.0 15.15 33.4 17.15 33.45 L18.65 33.2 18.65 33.25 18.95 33.2 20.05 32.05 19.95 31.6 19.9 31.6 19.05 31.2 19.0 31.2 18.9 31.35 18.85 31.3 18.7 31.3 Q17.95 31.3 17.45 30.85 M18.5 27.9 Q17.9 27.95 17.6 28.45 16.9 29.5 17.65 29.85 L17.9 29.25 Q18.1 28.6 18.5 28.35 L19.3 28.25 20.05 28.55 20.05 28.5 19.5 27.95 Q19.35 27.7 19.05 27.75 L18.5 27.9 M29.8 29.7 Q28.55 27.65 25.95 27.55 L25.3 27.55 24.4 27.7 Q22.9 27.9 21.6 28.7 L19.65 28.65 19.45 28.7 19.2 28.6 Q17.8 29.65 19.4 30.65 L20.0 30.95 20.0 30.85 20.8 30.7 21.55 30.2 Q23.25 29.0 25.3 29.2 26.2 29.25 26.8 29.9 27.85 31.0 26.35 31.5 L24.45 32.15 Q24.25 32.25 24.35 32.4 25.15 33.55 26.95 33.15 29.1 32.65 30.15 30.8 30.35 30.45 30.1 30.15 L29.8 29.7 M17.85 30.35 L17.8 30.4 Q18.0 31.2 18.65 30.85 L18.6 30.8 17.85 30.35 M13.3 24.85 Q14.9 23.3 17.15 23.3 19.4 23.3 20.95 24.85 22.2 26.1 22.5 27.7 L25.15 27.35 Q27.25 27.35 28.8 28.1 L29.0 28.2 Q31.95 29.5 30.25 32.0 L29.85 32.5 29.6 32.7 28.65 33.15 28.6 33.15 28.4 33.25 27.7 33.5 26.25 33.75 25.45 33.55 Q24.55 33.3 24.1 32.5 23.5 31.5 25.05 31.25 L25.7 30.9 Q26.6 29.8 24.7 29.9 L23.4 30.1 Q22.85 30.2 22.45 30.55 L21.05 31.8 Q20.5 32.3 20.25 32.95 L19.2 33.5 18.45 33.95 17.15 34.1 Q14.9 34.1 13.3 32.5 11.75 30.95 11.75 28.7 11.75 26.45 13.3 24.85" fill="#371200" fill-rule="evenodd" stroke="none"/>
    </g>
  </defs>
</svg>
